public/assets/images/Vector.svg

<svg width="24" height="24" viewBox="0 0 24 24" fill="none" xmlns="http://www.w3.org/2000/svg">
<path d="M12.3133 0.9375C6.00134 0.9375 0.884766 6.05407 0.884766 12.3661C0.884766 18.6781 6.00134 23.7946 12.3133 23.7946C18.6253 23.7946 23.7419 18.6781 23.7419 12.3661C23.7419 6.05407 18.6253 0.9375 12.3133 0.9375ZM12.3133 2.5935C14.8031 2.5935 17.0756 3.52493 18.8013 5.0575C17.5333 6.73007 15.607 7.84379 13.6768 8.5975C12.584 6.60741 11.3594 4.69266 10.0111 2.86607C10.7652 2.6843 11.5382 2.5928 12.3139 2.5935H12.3133ZM8.15562 3.51921C9.42991 5.4255 10.6642 7.19293 11.7916 9.1935C8.94019 9.93236 5.71791 10.3758 2.74134 10.3832C3.36877 7.33864 5.41391 4.81064 8.15562 3.51979V3.51921ZM19.8853 6.18779C21.2975 7.91347 22.0743 10.0717 22.0859 12.3015C19.8253 11.8558 17.5773 11.7392 15.2882 11.9701C15.031 11.3284 14.7191 10.7186 14.4202 10.0615C16.3933 9.2655 18.503 7.90321 19.8853 6.18721V6.18779ZM12.5853 10.7055C12.8299 11.2255 13.1133 11.7775 13.3796 12.3415C10.1968 13.7449 6.81105 15.6204 5.05391 18.9084C3.36705 17.0417 2.46808 14.5946 2.54534 12.0798C5.95391 12.0638 9.29962 11.6375 12.5853 10.7055ZM17.7499 13.3701C19.1721 13.3704 20.5884 13.5528 21.9642 13.9129C21.7521 15.2365 21.2699 16.5023 20.5476 17.6315C19.8254 18.7607 18.8785 19.7293 17.7659 20.4769C17.2413 18.0912 16.7413 15.8084 15.8573 13.5066C16.4839 13.4153 17.1162 13.3695 17.7493 13.3695L17.7499 13.3701ZM22.0151 13.5472C22.0082 13.6032 22.0019 13.6581 21.9939 13.7129C22.0019 13.6575 22.0088 13.6026 22.0151 13.5472ZM14.0493 13.9529C14.9499 16.2804 15.6568 18.8575 16.1311 21.3655C14.9237 21.8778 13.6254 22.1409 12.3139 22.1392C10.1412 22.1423 8.03006 21.4181 6.31676 20.0821C8.08648 17.2112 10.8276 15.0386 14.0488 13.9535L14.0493 13.9529Z" fill="#111827"/>
</svg>

<svg xmlns="http://www.w3.org/2000/svg" width="24" height="24" fill="none"><path fill="#111827" d="M12.313.938C6.001.938.885 6.053.885 12.366c0 6.312 5.116 11.429 11.428 11.429 6.312 0 11.429-5.117 11.429-11.429S18.625.938 12.313.938Zm0 1.656c2.49 0 4.763.93 6.488 2.464-1.268 1.672-3.194 2.786-5.124 3.54a50.92 50.92 0 0 0-3.666-5.732 9.79 9.79 0 0 1 2.303-.272Zm-4.157.925c1.274 1.907 2.508 3.674 3.636 5.675-2.852.738-6.074 1.182-9.05 1.19A9.79 9.79 0 0 1 8.155 3.52Zm11.73 2.669a9.733 9.733 0 0 1 2.2 6.114 22.927 22.927 0 0 0-6.798-.332c-.257-.642-.569-1.251-.868-1.909 1.973-.796 4.083-2.158 5.465-3.874Zm-7.3 4.518c.244.52.527 1.072.794 1.636-3.183 1.403-6.569 3.278-8.326 6.566a9.739 9.739 0 0 1-2.509-6.828c3.409-.016 6.755-.443 10.04-1.374Zm5.164 2.664c1.422 0 2.838.183 4.214.543a9.77 9.77 0 0 1-4.198 6.564c-.525-2.386-1.025-4.669-1.909-6.97a13.122 13.122 0 0 1 1.892-.137Zm4.265.177c-.007.056-.013.111-.021.166.008-.055.015-.11.021-.166Zm-7.966.406c.9 2.327 1.608 4.905 2.082 7.413a9.74 9.74 0 0 1-3.817.773 9.73 9.73 0 0 1-5.997-2.057 14.532 14.532 0 0 1 7.732-6.129Z"/></svg>
